X:1087
T:The Waggoner
C:Thompson, 1793
L:1/8
M:6/8
R:Jig
S:Colin Hume's website,  colinhume.com  - chords can also be printed below the stave.
Q:3/8=112
K:D
P:A
|: a/g/ | "D"f2a "A"e2a | "G"B2d "D"A2d | "G"Bcd "D"AGF | "Em"GEE "A7"E2a/g/ |\
"D"f2a "A"e2a | "G"B2d "D"A2d | "G"Bcd "A7"ABG | "D"FDD D2 :|
P:B
|: A | "D"FDd "Em"BGe | "A"cAf "G"dBg | "D"dcB AGF | "Em"GEE "A7"E2A |\
"D"FDd "Em"BGe | "A"cAf "G"dBg | "D"fed "A7"ABc | "D"dDD D2 :|

